assets/img/icons_pokemon/ice.svg

<svg width="256" height="256" viewBox="0 0 256 256" fill="none" xmlns="http://www.w3.org/2000/svg">
<g clip-path="url(#clip0_57_756)">
<path d="M128 256C198.692 256 256 198.692 256 128C256 57.3075 198.692 0 128 0C57.3075 0 0 57.3075 0 128C0 198.692 57.3075 256 128 256Z" fill="#47C8C8"/>
<path d="M110.36 60.6098C116.41 54.7298 121.76 49.5198 128.13 43.3198C134.1 49.4498 139.3 54.7898 145.27 60.9098C140.35 66.6998 135.96 71.8698 130.53 78.2698C143.33 85.7098 156.93 94.5898 170.6 102.54V79.2798H194.61C194.61 87.0898 194.7 95.9598 194.7 104.61C173 104.61 189.05 104.87 172.46 104.87C172.46 120.23 172.9 136.4 172.9 152.38H194.69V176.56H170.75V154.68C157.53 162.24 143.69 170.02 130.37 177.63C135.5 183.53 139.77 188.42 145.27 194.74C139.9 200.4 134.61 205.97 127.91 213.03C121.95 206.64 116.7 201.01 110.79 194.67C115.77 188.97 120.23 183.87 125.63 177.7C112.38 170.09 98.6299 162.35 85.2599 154.67V176.89H61.2099V152.43H83.2399C83.2399 136.87 83.1599 119.54 83.1599 103.57L61.1099 103.49V79.2698H85.3299C85.3299 100.99 85.3299 82.1498 85.3299 100.51C98.4199 93.0998 112.02 86.1898 125.49 78.5598C120.46 72.5998 116.11 67.4398 110.34 60.6098H110.36Z" fill="#FBFDFD"/>
<path d="M96.46 140.79V108.73C109.01 101.57 109.01 101.92 123.73 93.7002L129.76 101.63C107.12 114.45 130.47 101.34 107.12 114.45V140.79H96.46Z" fill="#64CFCF"/>
</g>
<defs>
<clipPath id="clip0_57_756">
<rect width="256" height="256" fill="white"/>
</clipPath>
</defs>
</svg>

<?xml version="1.0" encoding="UTF-8"?>
<svg id="Layer_1" data-name="Layer 1" xmlns="http://www.w3.org/2000/svg" viewBox="0 0 256 256">
  <defs>
    <style>
      .cls-1 {
        fill: #47c8c8;
      }

      .cls-2 {
        fill: #fbfdfd;
      }

      .cls-3 {
        fill: #64cfcf;
      }
    </style>
  </defs>
  <circle class="cls-1" cx="128" cy="128" r="128"/>
  <path class="cls-2" d="M110.36,60.61c6.05-5.88,11.4-11.09,17.77-17.29,5.97,6.13,11.17,11.47,17.14,17.59-4.92,5.79-9.31,10.96-14.74,17.36,12.8,7.44,26.4,16.32,40.07,24.27v-23.26h24.01c0,7.81,.09,16.68,.09,25.33-21.7,0-5.65,.26-22.24,.26,0,15.36,.44,31.53,.44,47.51h21.79v24.18h-23.94v-21.88c-13.22,7.56-27.06,15.34-40.38,22.95,5.13,5.9,9.4,10.79,14.9,17.11-5.37,5.66-10.66,11.23-17.36,18.29-5.96-6.39-11.21-12.02-17.12-18.36,4.98-5.7,9.44-10.8,14.84-16.97-13.25-7.61-27-15.35-40.37-23.03v22.22h-24.05v-24.46h22.03c0-15.56-.08-32.89-.08-48.86l-22.05-.08v-24.22h24.22c0,21.72,0,2.88,0,21.24,13.09-7.41,26.69-14.32,40.16-21.95-5.03-5.96-9.38-11.12-15.15-17.95Z"/>
  <path class="cls-3" d="M96.46,140.79v-32.06c12.55-7.16,12.55-6.81,27.27-15.03l6.03,7.93c-22.64,12.82,.71-.29-22.64,12.82v26.34h-10.66Z"/>
</svg>
